X: 10265
T: Doctor's, The
R: reel
M: 4/4
K: Gmajor
|:F|G2DC B,DG,B,|DGBd eAAB|G2DC B,DGg|dBcA BGGF|
G2DC (3B,CD G,B,|DGBd eAAB|G2DC B,DGg|dBcA BGG:|
|:B|egfg ebge|dafd AFAd|egfg efga|bagf gfe^d|
ebge BGE^c|dafd AFDF|G2DC B,DGg|dBcA BGG:|

